X: 1
T: String Quartet in C Major opus 76 no 3 mvt 2
C: Franz Joseph Haydn
%%abc-version 2.0
%%abcx-abcm2ps-target-version 5.9.1 (29 Sep 2008)
%%abc-creator hum2abc beta
%%abcx-conversion-date 2021/02/14 14:38:12
%%abc-copyright Copyright (c) 1994, 2000 Center for Computer Assisted Research in the Humanities
%%abc-edited-by Frances Bennion
%%abcx-initial-encoding-date 1997/04/15
%%gracespace 0 6 6
%%humdrum-veritas 2984540547
%%humdrum-veritas-data 2125481039
%%linebreak <none>
%%barnumbers 0
L: 1/8
M: 4/4
N: Derived from op76n3-02.krn
Q: "Poco adagio, cantabile"
%%staves [1 2 3 4]
V: 1
V: 2
V: 3 clef=alto
V: 4 clef=bass
K: G
[V:1]z4 G3 A [I:setbarnb1]|
[V:2]z4 B,3 D |
[V:3]z4 G,2 z2 |
[V:4]z4 G,2 z2 |
[V:1]B2 A2 c2 B2 |
[V:2]G2 F2 A2 G2 |
[V:3]z4 D2 D2 |
[V:4]z4 F,2 G,2 |
[V:1]AF G2 e2 d2 |
[V:2]C2 B,2 c2 B2 |
[V:3]F,A, G,2 z4 |
[V:4]D,2 G,,2 z4 |
[V:1]c2 B2 A2 BG |
[V:2]F2 G2 E4 |
[V:3]A,2 B,2 E2 G,2 |
[V:4]D,2 G,2 C,2 ^C,2 |
[V:1]d4 G3 A |
[V:2]D4 B,3 D |
[V:3]F,4 G,2 z2 |
[V:4]D,4 G,2 z2 |
[V:1]B2 A2 c2 B2 |
[V:2]G2 F2 A2 G2 |
[V:3]z4 D2 D2 |
[V:4]z4 F,2 G,2 |
[V:1]AF G2 e2 d2 |
[V:2]C2 B,2 c2 B2 |
[V:3]F,A, G,2 z4 |
[V:4]D,2 G,,2 z4 |
[V:1]c2 B2 A2 BG |
[V:2]F2 G2 E4 |
[V:3]A,2 B,2 E2 G,2 |
[V:4]D,2 G,2 C,2 ^C,2 |
[V:1]d4 A2 B2 |
[V:2]D4 F2 G2 |
[V:3]F,4 D2 D2 |
[V:4]D,4 D,2 D,2 |
[V:1]AF D2 c2 B2 |
[V:2]F2 z2 F2 G2 |
[V:3]D2 z2 A,2 G,B, |
[V:4]D,2 z2 D,2 D,2 |
[V:1]AF D2 d2 c2 |
[V:2]F2 z2 B2 A2 |
[V:3]D2 z2 D2 EF |
[V:4]D,2 z2 B,,2 C,D, |
[V:1]B2 >B2 ^c2 cd |
[V:2]G6 GF |
[V:3]G2 G,2 E2 ED |
[V:4]E,4 A,,2 A,,2 |
[V:1]d4 g3 f |
[V:2]F4 [G3G,3] G |
[V:3]D4 [D4G,4] |
[V:4]D,4 B,3 B, |
[V:1]e2 d2 e3 d |
[V:2]G>A B2 c3 B |
[V:3]E>F G2 G3 G |
[V:4]C2 G,2 C,3 G, |
[V:1]c2 B2 A3 B/c/ |
[V:2]F2 G2 F3 G/A/ |
[V:3][D2A2] [B2D2] D4 |
[V:4]D,2 G,2 C,4 |
[V:1]de cA G2 AG |
[V:2]G2 EA G2 F2 |
[V:3]G,2 EC B,2 C2 |
[V:4]B,,2 C,2 D,2 D,2 |
[V:1]G4 g3 f |
[V:2]G4 [G,3G3] G |
[V:3]B,4 [G,4D4] |
[V:4]G,,4 B,3 B, |
[V:1]e2 d2 e3 d |
[V:2]G>A B2 c3 B |
[V:3]E>F G2 G3 G |
[V:4]C2 G,2 C,3 G, |
[V:1]c2 B2 A3 B/c/ |
[V:2]F2 G2 F3 G/A/ |
[V:3][A2D2] [B2D2] D4 |
[V:4]D,2 G,2 C,4 |
[V:1]de cA G2 AG |
[V:2]G2 EA G2 F2 |
[V:3]G,2 EC B,2 C2 |
[V:4]B,,2 C,2 D,2 D,2 |
[V:1]G4 B,/D/G/B/ d/g/f/e/ |
[V:2]G4 G3 A |
[V:3]B,4 z4 |
[V:4]G,,4 z4 |
[V:1]d/g/b/g/ f/D/f/g/ ^g/a/c'/f/ a/=g/b/d/ |
[V:2]B2 A2 c2 B2 |
[V:3]z8 |
[V:4]z8 |
[V:1]d/c/e/c/ ^A/B/F/G/ z/g/d'/c'/ f/c'/^a/b/ |
[V:2]AF G2 e2 d2 |
[V:3]z8 |
[V:4]z8 |
[V:1]z/e/b/a/ d/a/f/g/ z/c/g/f/ a/g/b/g/ |
[V:2]c2 B2 A2 BG |
[V:3]z8 |
[V:4]z8 |
[V:1]f/a/^c'/d'/ D/E/C/D/ B,/D/G/B/ d/g/f/e/ |
[V:2]d4 G3 A |
[V:3]z8 |
[V:4]z8 |
[V:1]d/g/b/g/ f/D/f/g/ ^g/a/c'/f/ a/=g/b/d/ |
[V:2]B2 A2 c2 B2 |
[V:3]z8 |
[V:4]z8 |
[V:1]d/c/e/c/ ^A/B/F/G/ z/g/d'/c'/ f/c'/^a/b/ |
[V:2]AF G2 e2 d2 |
[V:3]z8 |
[V:4]z8 |
[V:1]z/e/b/a/ d/a/f/g/ z/c/g/f/ a/g/b/g/ |
[V:2]c2 B2 A2 BG |
[V:3]z8 |
[V:4]z8 |
[V:1]f/a/^c'/d'/ d2 D/F/d/F/ D/G/d/G/ |
[V:2]d4 A2 B2 |
[V:3]z8 |
[V:4]z8 |
[V:1]D/F/A/^c/ d/f/a/d'/ a/f/d/f/ g/d/B/G/ |
[V:2]AF D2 c2 B2 |
[V:3]z8 |
[V:4]z8 |
[V:1]D/F/A/^c/ d/f/a/d'/ B/d/g/b/ D/a/f/D/ |
[V:2]AF D2 d2 c2 |
[V:3]z8 |
[V:4]z8 |
[V:1]E/G/B/e/ g/b/g/e/ A,/^C/E/G/ ^c/e/g/G/ |
[V:2]B2 >B2 ^c2 cd |
[V:3]z8 |
[V:4]z8 |
[V:1]F/d/A/F/ D/E/C/D/ B,/D/G/B/ d/g/B,/G/ |
[V:2]d4 g3 f |
[V:3]z8 |
[V:4]z8 |
[V:1]C/G/e/G/ B,/G/d/G/ C/E/G/c/ e/g/B,/G/ |
[V:2]e2 d2 e3 d |
[V:3]z8 |
[V:4]z8 |
[V:1]A,/C/D/F/ G/B/d/g/ C/D/F/A/ c/f/g/a/ |
[V:2]c2 B2 A3 B/c/ |
[V:3]z8 |
[V:4]z8 |
[V:1]B/g/c/g/ E/g/^C/e/ D/G/B/d/ D/c/f/c/ |
[V:2]de cA G2 AG |
[V:3]z8 |
[V:4]z8 |
[V:1]B/g/d/B/ G/D/B,/D/ (3G,/B,/D/(3G/B/d/ g/B/B,/G/ |
[V:2]G2 z2 g3 f |
[V:3]z8 |
[V:4]z8 |
[V:1]C/G/e/G/ B,/G/d/G/ C/E/G/c/ e/g/B,/G/ |
[V:2]e2 d2 e3 d |
[V:3]z8 |
[V:4]z8 |
[V:1]A,/C/D/F/ G/B/d/g/ C/D/F/A/ c/f/g/a/ |
[V:2]c2 B2 A3 B/c/ |
[V:3]z8 |
[V:4]z8 |
[V:1]B/g/c/g/ E/g/^C/e/ D/G/B/d/ D/c/f/c/ |
[V:2]de cA G2 A3/G/ |
[V:3]z8 |
[V:4]z8 |
[V:1]B/g/d/B/ Gz2 d BF |
[V:2]G2 z2 B,3 C |
[V:3]z8 |
[V:4]z4 G,3 A, |
[V:1]Gg2 f ze2 d- |
[V:2]D2 C2 F2 G2 |
[V:3]z4 D,4- |
[V:4]B,2 A,2 C2 B,2 |
[V:1]dc2 B z^c2 d |
[V:2]FA2 G G2 F2 |
[V:3]D,2 G,2 z4 |
[V:4]A,F, G,2 E2 D2 |
[V:1]ef2 g d'c'2 b |
[V:2]E2 D2 F2 G2 |
[V:3]z4 D,4- |
[V:4]C2 B,2 A,2 B,G, |
[V:1]ba g/f/e/d/ zd BF |
[V:2]F2 z2 B,3 C |
[V:3]D,2 z6 |
[V:4]D4 G,3 A, |
[V:1]Gg2 f ze2 d- |
[V:2]D2 C2 F2 G2 |
[V:3]z4 D,4- |
[V:4]B,2 A,2 C2 B,2 |
[V:1]dc2 B z^c2 d |
[V:2]FA2 G G2 F2 |
[V:3]D,2 G,2 z4 |
[V:4]A,F, G,2 E2 D2 |
[V:1]ef2 g d'c'2 b- |
[V:2]E2 D2 F2 G2 |
[V:3]z4 D,4- |
[V:4]C2 B,2 A,2 B,G, |
[V:1]ba g/f/e/d/ zd2 ^c |
[V:2]F2 z2 F2 G2 |
[V:3]D,2 z2 D,4- |
[V:4]D4 A,2 B,2 |
[V:1]df af de2 d- |
[V:2]F4- F2 G2 |
[V:3]D,8- |
[V:4]A,F, D,2 C2 B,2 |
[V:1]dc BA ^G/A/B/A/ c/B/e/d/ |
[V:2]F4 [F2A,2] [D2A,2] |
[V:3]D,4 [A,2D,2] F,2 |
[V:4]A,F, D,2 D2 C2 |
[V:1]^c/d/e/d/ g/f/a/g/ b2 a/g/f/g/ |
[V:2][D4G,4] G3 B |
[V:3]G,4 E,4 |
[V:4]B,2 >B,2 ^C2 CD |
[V:1]g2 f2 e/^d/e/g/ ^c=d- |
[V:2]B2 A2 B2 A2 |
[V:3]D,4 z4 |
[V:4]D4 G3 F |
[V:1]dc2 B c/B/c/e/ ^AB- |
[V:2]G2 F2 G3 F |
[V:3]z8 |
[V:4]E2 D2 E3 D |
[V:1]BA2 G e/^d/e/d/ e=d/c/ |
[V:2]E2 D2 c/B/c/B/ cB/A/ |
[V:3]z4 F,3 G,/A,/ |
[V:4]C2 B,2 A,3 B,/C/ |
[V:1]BA ce G2 F2 |
[V:2]G2 EC B,2 C2 |
[V:3]B,C [C2C,2] D,4 |
[V:4]DE CA, G,2 A,3/G,/ |
[V:1]G2 z2 e/^d/e/g/ ^c=d- |
[V:2]B,2 z2 B2 A2 |
[V:3]G,2 z6 |
[V:4]G,A,/B,/ C/D/E/F/ G3 F |
[V:1]dc2 B c/B/c/e/ ^AB- |
[V:2]G2 F2 G3 F |
[V:3]z8 |
[V:4]E2 D2 E3 D |
[V:1]BA2 G e/^d/e/d/ e=d/c/ |
[V:2]E2 D2 c/B/c/B/ cB/A/ |
[V:3]z4 F,3 G,/A,/ |
[V:4]C2 B,2 A,3 B,/C/ |
[V:1]BA ce G2 F2 |
[V:2]G2 EC B,2 C2 |
[V:3]B,C [C,2C2] D,4 |
[V:4]DE CA, G,2 A,3/G,/ |
[V:1]G2 z2 >E2 B,^C |
[V:2]B,2 z6 |
[V:3]G,2 z2 G3 A |
[V:4]G,2 G,,2 z4 |
[V:1]DG2 F EA2 G |
[V:2]z8 |
[V:3]B2 A2 c2 B2 |
[V:4]z8 |
[V:1]C2 B,2 ^GA F=G |
[V:2]Fe2 d2 c2 B- |
[V:3]AF G2 e2 d2 |
[V:4]z8 |
[V:1]EF ^DE C^C2 A, |
[V:2]BA2 G2 G2 G |
[V:3]c2 B2 A2 BG |
[V:4]z8 |
[V:1]D4 z4 |
[V:2]F4 zE B,^C |
[V:3]d4 G3 A |
[V:4]z8 |
[V:1]zg2 f za2 g |
[V:2]D8- |
[V:3]B2 A2 c2 B2 |
[V:4]z8 |
[V:1]fe'2 d'2 c'2 b- |
[V:2]Dc2 B/A/ ^GA F=G |
[V:3]AF G2 e2 d2 |
[V:4]z8 |
[V:1]ba2 g >fg/f/ g[^cG] |
[V:2]EF ^DE C^C2 A, |
[V:3]c2 B2 A2 BG |
[V:4]z8 |
[V:1][d4F4] z4 |
[V:2]D4 F2 G2 |
[V:3]d4 A2 B2 |
[V:4]z4 zD B,A,/G,/ |
[V:1]z8 |
[V:2]F2 z2 A2 G2 |
[V:3]AF D2 c2 B2 |
[V:4]D,2 z/D,/F,/A,/ D^D E^C |
[V:1]z8 |
[V:2]F2 z2 D2 F2 |
[V:3]AF D2 d2 c2 |
[V:4]D3 C2 B,2 A,- |
[V:1]z8 |
[V:2]G4- G_B AG |
[V:3]B2 >B2 ^c2 cd |
[V:4]A,D, G,F, E,_E, _E,,E, |
[V:1]z4 Bc ^cd- |
[V:2]F4 E3 D |
[V:3]d4 g3 f |
[V:4]D,2 D,,2 z4 |
[V:1]dc2 B cB _BA |
[V:2]^GA F=G z4 |
[V:3]e2 d2 e3 d |
[V:4]z4 A,^G, =G,F, |
[V:1]GG F=F EG ^FA |
[V:2]z4 zE DF |
[V:3]c2 B2 A3 B/c/ |
[V:4]E,E ^D=D ^C2 =C2 |
[V:1]GB ce G2 F2 |
[V:2]zE2 C B,2 C2 |
[V:3]de cA G2 A3/G/ |
[V:4]B,^G, A,C, D,4 |
[V:1]G2 z2 Bc ^cd- |
[V:2]B,2 z2 E3 D |
[V:3]GA/B/ c/d/e/f/ g3 f |
[V:4]G,2 z6 |
[V:1]dc2 B cB _BA |
[V:2]^GA F=G z4 |
[V:3]e2 d2 e3 d |
[V:4]z4 A,^G, =G,F, |
[V:1]GG F=F EG ^FA |
[V:2]z4 zE DF |
[V:3]c2 B2 A3 B/c/ |
[V:4]E,E ^D=D ^C2 =C2 |
[V:1]GB ce G2 F2 |
[V:2]zE2 C B,2 C2 |
[V:3]de cA G2 A3/G/ |
[V:4]B,^G, A,C, D,4 |
[V:1]G2 z2 G3 A |
[V:2]B,2 z2 B,2 ^C2 |
[V:3]G2 z2 G,4- |
[V:4]G,2 G,,2 E,4 |
[V:1]B2 A2 c2 B2 |
[V:2]D4 A2 G2 |
[V:3]G,2 F,4 G,2 |
[V:4]D,4 ^D,2 E,2 |
[V:1]AF G2 e2 d2 |
[V:2]^D2 E2 G>A B2 |
[V:3]F,2 E,2 C2 B,2 |
[V:4]B,,2 E,2 C,2 G,2 |
[V:1]c2 B2 A2 BG |
[V:2]E>F G4 G2 |
[V:3]C2 D2 E4 |
[V:4]A,2 G,2 C2 ^C2 |
[V:1]d4 g3 a |
[V:2]F4 B2 ^c2 |
[V:3]D2 z2 G4- |
[V:4]D2 D,2 E4 |
[V:1]b2 a2 c'2 b2 |
[V:2]d4 a2 g2 |
[V:3]G2 F4 G2 |
[V:4]D4 ^D2 E2 |
[V:1]af g2 e'2 d'2 |
[V:2]^d2 e2 g>a b2 |
[V:3]F2 E2 c2 B2 |
[V:4]B,2 E2 C2 G2 |
[V:1]c'2 b2 a2 bg |
[V:2]e>f g4 g2 |
[V:3]c2 d2 e4 |
[V:4]A2 G2 C2 ^C2 |
[V:1]d'4 a2 b2 |
[V:2]f4 f2 g2 |
[V:3]F2 z2 d2 ^c2 |
[V:4]D8- |
[V:1]af d2 c'2 b2 |
[V:2]f2 z2 ef gg |
[V:3]d2 cB A2 G^c |
[V:4]D8- |
[V:1]af d2 d'2 c'2 |
[V:2]f2 z3 b2 a- |
[V:3]d2 >c2 B^G AF |
[V:4]D8- |
[V:1]b2 >b2 ^c'2 c'd' |
[V:2]ad gf eg fe |
[V:3]GA BA GB AG |
[V:4]D8 |
[V:1]d'4 g'3 f' |
[V:2]f4 ga bd'- |
[V:3]A2 z2 dc BB |
[V:4]D2 E/F/G/A/ BA GG |
[V:1]e'2 d'2 e'3 d' |
[V:2]d'c'2 b ef g^g |
[V:3]ce fg2 G/A/ BE |
[V:4]G4 C2 B,2 |
[V:1]c'2 b2 a3 b/c'/ |
[V:2]a2 g4 fg/a/ |
[V:3]EF GF E2 D2- |
[V:4]A,2 ED ^C2 =C2 |
[V:1]d'e' c'a g2 a3/g/ |
[V:2]g2 ea g2 f2 |
[V:3]DG2 e B2 c2 |
[V:4]B,2 C2 D2 D,2 |
[V:1]ga/b/ c'/d'/e'/f'/ g'3 f' |
[V:2]g2 z2 bc' ^ab |
[V:3]B2 z2 e3 d- |
[V:4]G,2 z6 |
[V:1]e'2 d'2 e'3 d' |
[V:2]^ga f=g2 <g2 =f |
[V:3]dc2 B ^AB c^G |
[V:4]z4 ^A,B, C^G, |
[V:1]c'2 b2 a3 b/c'/ |
[V:2]ef gf e2 d2- |
[V:3]A^D EF GG FA |
[V:4]A,^D, E,=D, ^C,A,, =C,D,, |
[V:1]d'e' c'a g2 a3/g/ |
[V:2]dB ce B2 c2 |
[V:3]GB Ec DG FF |
[V:4]B,,^G,, A,,C, D,4 |
[V:1]g7 =f |
[V:2]B2 >c2 d^c dd |
[V:3][GG,]B, DE =FE FB, |
[V:4]G,8- |
[V:1]e4 d4- |
[V:2]d2 c4 BA |
[V:3]CD EF GF G=F |
[V:4]G,8- |
[V:1]dc2 B2 A AA |
[V:2]G4 FF FF |
[V:3]E2 D2 C[_EC] [EC][EC] |
[V:4]G,4- G,[G,G,,] [G,G,,][G,G,,] |
[V:1]A8 |
[V:2]F8 |
[V:3][_E8C8] |
[V:4][G,8G,,8] |
[V:1]B8 |]
[V:2]G8 |]
[V:3][B,8D8] |]
[V:4][G,8G,,8] |]

